X: 1
T: Paddy Killed The Rat
M: 4/4
L: 1/8
R: reel
K: Gmaj
G2 GF GAB^c | dBgd edBG | A2 A2 AB^cd | e2 ed efg2 |
G2 GF GAB^c | dBgd edBG | A2 A^c BAGB| G2  E2 E4 :|
g2gf gfed | edBA G2 B2 | Aaag  ageg | b2 e2 e2 (3def |
g2gf gfed | edBA G2 B2 | A2 A^c BAGB| G2  E2 E4 :|
